X: 1061
M: 6/8
L: 1/8
K: F
z |\
f3 f3 | fef agf | ede gfe | d3 d3 |\
d^cd fed | cde efg | f3 z2z | f3 z2 ||
|: A |\
f3 f3 | fef agf | ede gfe | f3 z2 :|
|: d |\
cFF GFF | cFF F2d | cBA AGF | EGG GAB |\
cFF GFF | cFF d2c/B/ | ABc cde | fFF F2 :|
|: f |\
fed dAA | BAG F2E | DEF FGA | Adc c2e |\
fed dAA | BAG F2E | DEF FGA | Adc c2d |
cFF GFF | cFF F2d | cBA AGF | EGG GAB |\
cFF GFF | cFF d2c/B/ | ABc cde | fFF F2 :|

